X: 11179
T: Dunford's Fancy
R: jig
M: 6/8
K: Dmajor
F3 FED|FAA AFA|B3 BAF|AFE EDE|
F3 FED|FAA AFA|BAB dcd|fec d2A:|
f3 fed|faf fed|a3 fed|e2e ede|f3 fbf|
ede fed|1 gfe dag|fec d2e:|2 gfe dcB|Adc dcB||

